X: 7
T: Trip to Dilington    (A)
O: 1779
R: reel
S: Image from Darlene Wigton, June 2017
Z: 2017 John Chambers <jc:trillian.mit.edu>
N: The B part is repeated in the original, but the dancers didn't agree and the dance has 5 phrases.
L: 1/8
M: C
K: A
% - - - - - - - - - -
"A"|:\
"A"A2ce a2ec | a2ec "E"BGFE |\
"A"A2ce a2ec | "E7"BABc "A"A4 \
"B":|\
"A"c2ec "E"Befg | "B"af"E"ge "B7"^d2B2 |
"A"a2c'a "E"gabg | "B7"afe^d "E"e4 \
"C"|:\
"A"A,2CE Acec | "Bm"BdFB "E7"AGFE |\
"A"A,2CE Acec |"E7"BABc "A"A4 :| [c'2A,2]
% - - - - - - - - - -

%%sep 1 1 500
%%sep 1 1 500

